X: 1
T:My Home Town
M:3/4
L:1/8
R:Retreat
K:D
Ade|"D"f2 fa f/e/d|"G"B2 Bd cB|"D"A2 d2 d/e/f|"A"e3 aag|!
"D"f2 fa f/e/d|"G"B2 B/c/d cB|"D"A2 d/e/f "A"e>d|"D"d3:|!
|:"D"A d/e/f|"G"g2 g2 fe|"D"f2 d2 af|"A"e3 dfA|"Bm"B3 AAB|!
"D"d2 da f/e/d|"G"B2 B/c/d cB|"D"A2 d/e/f "A"e>d|"D"d3:||
